X: 4
T: Flute Melody No 4
N: Derived from Flute_Melody_No_4.krn
%%abc-version 2.0
%%abcx-abcm2ps-target-version 5.9.1 (29 Sep 2008)
%%abc-creator hum2abc beta
%%abcx-conversion-date 2019/03/15 08:35:44
%%humdrum-veritas 1757026016
%%humdrum-veritas-data 1119211226
%%linebreak <none>
%%barnumbers 0
L: 1/4
M: 2/4
K: A clef=treble
[K:clef=treble][M:2/4]A2- | 
A2 ||  
[M:3/4]edB ||  
[M:2/4]A2- | 
(A3/a/) | 
A2- | 
(A3/a/) | 
Az ||  
[M:3/4]Aaf | 
e-(e3/a/) | 
ed(B3//d//) ||  
[M:2/4]A2- | 
A2 ||  
[M:3/4]{/d}edB3//d// ||  
[M:2/4]A2- | 
(A3/a/) |]  



